(2018-09-22 VACUUM 2400X1200)
(2018-09-22 VACUUM 2400X1200)
(T80  D=60. CR=0. - ZMIN=10. - FLAT END MILL)
G90 G94 G91.1 G40 G49 G17
G21
G28 G91 Z0.
G90

(FACE4)
M5
M9
T80 M6
G10 L2 P5 X70 Y45 Z-95
G58
G0 X2459. Y28.471
G43 Z16.
G18 G3 X2453. Z0. I-6. K0. F20000.
G1 X2420.
X0.
G17 G2 Y86.343 I0. J28.936
G1 X2420.
G3 Y144.214 I0. J28.936
G1 X0.
G2 Y202.086 I0. J28.936
G1 X2420.
G3 Y259.957 I0. J28.936
G1 X0.
G2 Y317.829 I0. J28.936
G1 X2420.
G3 Y375.7 I0. J28.936
G1 X0.
G2 Y433.571 I0. J28.936
G1 X2420.
G3 Y491.443 I0. J28.936
G1 X0.
G2 Y549.314 I0. J28.936
G1 X2420.
G3 Y607.186 I0. J28.936
G1 X0.
G2 Y665.057 I0. J28.936
G1 X2420.
G3 Y722.929 I0. J28.936
G1 X0.
G2 Y780.8 I0. J28.936
G1 X2420.
G3 Y838.671 I0. J28.936
G1 X0.
G2 Y896.543 I0. J28.936
G1 X2420.
G3 Y954.414 I0. J28.936
G1 X0.
G2 Y1012.286 I0. J28.936
G1 X2420.
G3 Y1070.157 I0. J28.936
G1 X0.
G2 Y1128.029 I0. J28.936
G1 X2420.
G3 Y1185.9 I0. J28.936
G1 X0.
G18 G3 X-6. Z16. I0. K6. F3100.
G17

M9
G28 G91 Z0.
G90
G28 G91 X0. Y0.
G90
M30
